X:16
T:Monaghan Jig, The
S:as recorded by Michael Coleman
C:Trad
R:jig
N:Transcribed by Alan Ng
D:Gael-Linn Viva Voce 004 Disc 2 Track 12, 1st time through tune
Z:id:ng-jigs-16 transcribed by Alan Ng agng@students.wisc.edu Oct. 12, 1997. Compare with Henrik Norbecks abc transcription (hn-jig-182) of Mary Bergin's performance.
L:1/8
M:6/8
K:EDor
P:A
d6||BEE ~E3|BGE FGA|BGE dBG|AFD DFD|BGE ~E3|BGE FGA|dcB ABG|FDF AGF||\
BGE ~E3|BGE FGA|BGE BGE|AFD AFD|BGE ~E3|BGE FGA|dcB ABG|FDF AGF||
P:B
EGB efg|fed edc|EGB EFG|~F3 AGF|EGB efg|fed edc|(3dcc B ABG|FDF AGF||\
EGB efg|fed edc|EGB EFG|~F3 AGF|EGB [B2e2]g|fed edc|dcB ABG|FDF [F2A2]f||
P:C
{a}g2e e^de|{a}geg bge|(3gff g e^de|{fg}fef dfa|{a}g2e e^de|{a}geg bge|d=cB ABG|FDF AGF||\
{a}g2e e^de|{a}geg bge|(3gff g e^de|{fg}fef dfa|gbe e^de|{a}geg bge|(3d=ccB ABG|FDF AGF|
P:D
|:EGB eBG|BGE FAF|EGB eBG|~F3 AGF|EGB GBe|Beg egb|{g}fed ABG|FDF AGF:|
